src/items/24-rifle.svg

<svg xmlns="http://www.w3.org/2000/svg" viewBox="0 0 48 48" width="96" height="96"><path fill="#56300d" d="M37 11h-2V5.4c0-.4.3-.8.7-.9.4-.1.8 0 1.1.3l3 3.6-1.5 1.3L37 8.2V11zm-11.7 7.2l1.5-1.3 2.7 3-1.5 1.3-2.7-3z"/><path fill="#56300d" d="M40 32c-9.7 0-15.6-5.8-17.2-7.5l4.5-4c2.4 2.7 7 5.5 12.7 5.5v6zm-15.3 5l-3.4 2-3.4-11.2 3.3-.6 3.5 9.8z"/><path fill="#56300d" d="M22.1 39.3c-.4 0-.8-.2-.9-.6-.2-.5 0-1.1.5-1.3l2.9-1.3c.5-.2 1.1 0 1.3.5.2.5 0 1.1-.5 1.3l-2.9 1.3c-.1.1-.3.1-.4.1zm.2-6.4L21 31.4s2.5-2.2 3.5-3.1c.3-.3.5-.6.5-1s-.1-.8-.4-1.1l-1.7-1.9 1.5-1.3 1.7 1.9c.6.7.9 1.6.9 2.5-.1.9-.5 1.8-1.2 2.4-1 1-3.5 3.1-3.5 3.1z"/><path fill="#995f1a" d="M25 22.5l-7.1 6.3c-.8.7-2.1.7-2.8-.2L12.6 26c-.7-.8-.7-2.1.2-2.8l7.8-5.6c.8-.7 2.1-.7 2.8.2l1.9 1.9c.6.8.5 2-.3 2.8zm-10.4 2.6l2 2.2 7.1-6.3-2-2.2-7.1 6.3zm17.1-8.6L43 6l-1.3-1.5L30.4 15l1.3 1.5zM15.3 31.1l-8.2 7.3-2-2.2 8.2-7.3 2 2.2z"/><path fill="#995f1a" d="M9.937 32.019h2v9.1h-2z"/><path fill="#c68632" d="M36.9 13.2l-6.8 7.4-4-4.5 8.1-5.9 2.7 3zm-8.6 15.6c-1.9-.9-3.8-2.5-5.5-4.3l4.5-4c1.8 2 3.4 2.7 4 3.1l-3 5.2z"/><path fill="#c68632" d="M18.9 30.6l9.7-8.7-4-4.5s-10.4 9.3-11.2 10c-.7.7-.1 1.4-.1 1.4s1.3 1.5 2 2.2c.7.7 1.4.1 1.4.1s1.5-1.2 2.2-.5zM5 36.3L6.5 35l6 6.7L11 43l-6-6.7z"/></svg>

<svg xmlns="http://www.w3.org/2000/svg" viewBox="0 0 48 48" width="96px" height="96px"><path fill="#56300d" d="M37 11h-2V5.4c0-.4.3-.8.7-.9.4-.1.8 0 1.1.3l3 3.6-1.5 1.3L37 8.2V11zM25.3 18.2l1.5-1.3 2.7 3-1.5 1.3L25.3 18.2z"/><path fill="#56300d" d="M40 32c-9.7 0-15.6-5.8-17.2-7.5l4.5-4c2.4 2.7 7 5.5 12.7 5.5V32zM24.7 37l-3.4 2-3.4-11.2 3.3-.6L24.7 37z"/><path fill="#56300d" d="M22.1 39.3c-.4 0-.8-.2-.9-.6-.2-.5 0-1.1.5-1.3l2.9-1.3c.5-.2 1.1 0 1.3.5.2.5 0 1.1-.5 1.3l-2.9 1.3C22.4 39.3 22.2 39.3 22.1 39.3zM22.3 32.9L21 31.4c0 0 2.5-2.2 3.5-3.1.3-.3.5-.6.5-1 0-.4-.1-.8-.4-1.1l-1.7-1.9 1.5-1.3 1.7 1.9c.6.7.9 1.6.9 2.5-.1.9-.5 1.8-1.2 2.4C24.8 30.8 22.3 32.9 22.3 32.9z"/><path fill="#995f1a" d="M25 22.5l-7.1 6.3c-.8.7-2.1.7-2.8-.2L12.6 26c-.7-.8-.7-2.1.2-2.8l7.8-5.6c.8-.7 2.1-.7 2.8.2l1.9 1.9C25.9 20.5 25.8 21.7 25 22.5zM14.6 25.1l2 2.2 7.1-6.3-2-2.2L14.6 25.1zM31.7 16.5L43 6l-1.3-1.5L30.4 15 31.7 16.5zM15.3 31.1l-8.2 7.3-2-2.2 8.2-7.3L15.3 31.1z"/><path fill="#995f1a" d="M10 32H12V41.1H10z" transform="translate(-.063 .019)"/><path fill="#c68632" d="M36.9 13.2l-6.8 7.4-4-4.5 8.1-5.9L36.9 13.2zM28.3 28.8c-1.9-.9-3.8-2.5-5.5-4.3l4.5-4c1.8 2 3.4 2.7 4 3.1L28.3 28.8z"/><path fill="#c68632" d="M18.9 30.6l9.7-8.7-4-4.5c0 0-10.4 9.3-11.2 10-.7.7-.1 1.4-.1 1.4s1.3 1.5 2 2.2c.7.7 1.4.1 1.4.1S18.2 29.9 18.9 30.6zM5 36.3l1.5-1.3 6 6.7L11 43 5 36.3z"/></svg>
